X:45
T:Colliers Daughter
M:4/4
L:1/4
Q:1/2=105
S:D.Wright, Extraordinary Collection, London 1713
Z:Pete Stewart, 2004 <www.hornpipemusic.co.uk>
K:G
d | B>AGF | G2D2 | F>GAF | A/B/ccd |
B/c/A/B/ G/B/A/F/ | G2D2 | c/B/A/B/ c/B/A/G/ | Bd2 ||
e/f/ | g/e/c/e/ f/d/B/d/ | f2d2 | c/A/F/A/ c/A/F/A/ | c2A2 |
BGAD | B/G/B/G/AD | b/a/g/f/gG | Bd2 |]

